X: 14631
T: Gan Ainm
R: jig
M: 6/8
K: Gmajor
|:GFD B,CE|DB,B, CA,A,|DD,F, A,DF|Aed cBA|
GFD B,CE|DB,B, CA,A,|D,F,A, DFA|1 cAF G3:|2 cAF Gc^c||
|:d2B GBd|eGc efg|DFA dfg|a2g fe^c|
dGB ddd|eGc efg|a2g efe|dec Age|
dGd GdG|eGe GeG|d'af dfg|a2g fe^c|
dGB ddg|ece gbd'|c'ba gfe|dcB AFD||

